X:79
T:Brickmakers. JJo8.079, The
%%VWML:JohnsonVol8-2184-p40-0
F:http://www.vwml.org/record/JohnsonVol8/2184/p40
Z:Transcribed by Simon Furey and Lewis Jones
Z:vmp.Simon Wilson 2013 www.village-music-project.org.uk
Z:Dance added by John Chambers 2017
M:2/4
L:1/8
%Q:1/4=100
K:Bb
(B/c/) |\
dB2d | cA2c | BG2B | A^FD2 |\
G2AB | cAG^F | G2G2 | G3 :|\
|: B/c/ |\
db2a- | ag2f- | f2gf | f2gA |
B2cd | e2fg | fdcB | {B}A2GF |\
BA2c- | cB2d- | dceG | {G}^F2ED |\
G2AB | cAG^F | G2G2 | G3 :|
W: Foot it and half right and Left .|. the same
W:back again .||. Cross over two Cu Lead up
W:to the Top, cast off .||. 4 hands round at
W:Bottom, Right and Left at Top :||:
W:
T:Nebuchadnezzar's Delight. JJo8.080
B:J.Johnson Choice Collection Vol 8 1758
Z:vmp.Simon Wilson 2013 www.village-music-project.org.uk
Z:Dance added by John Chambers 2017
M:6/8
L:1/8
%Q:3/8=120
K:C
|:\
{d}"^tr"c>Bc {d}"^tr"cBc | cGF EDC | DBd Ece | Ffd {c}BAG |\
{d}c>Bc {c}c>Bc | ca^f gfg | edc BdG | Ac^FG3 :|
|:\
GA_B BgG | GA_B AGF | ABc cAa | ABc BAG |\
afd gec | Afd BAG | AGF EGC | DFB,C3 :|
W: Hey contrary sides :|. then
W:hey of your own sides .||. gallop
W:down, up again cast off || right
W:and Left :||:
W:
